X:1
T: Big Mac
C:
R:Reel
Q:232
K:A
M:4/4
L:1/8
|:e2|e2cA a2gf|fe ^de ce Ac|B2GB EG Bd|fe ^de B2cd|
e2cA a2gf|fe ^de ce Ac|BE GB de gf|ed BG A2GA|
B2GE d2cB|cA GA ce cA|^d2cB a2gf|ge ^de =de fg|
a2ec f2dB|Ge ^de cA A=G|FD FA df gf|ed BG A2:|
